X:1
T:Standin In The Need of Prayer
T:My way's cloudy
T:Copyright 1881 by The Riverside Press
T:Rodeheaver's Plantation Melodies
T:Rodeheaver's Plantation Melodies
Z:Rodeheaver's Plantation Melodies
%%score [ 1 2 3 4 ]
L:1/8
Q:1/4=70
M:4/4
K:D
V:1 treble nm="Soprano" snm="S."
V:2 treble nm="Alto" snm="A."
V:3 bass nm="Tenor" snm="T."
V:4 bass nm="Bass" snm="B."
V:1
 AA/F/ F | (F3 A) A4 | d2 d2 B<A A2 | (F3 A) A3 A | AGAE DA A/F/F | (F3 A) A4 | d2 d2 B<A A2 | %7
 (F3 A) A3 A | AFAE D3 || d | dd/d/ cc dB/B/ A2 | ddcd e3 A | ddcc dBAA | AFAE D!D.C.! |] %14
V:2
 AA/F/ F | (D3 F) F4 | F2 F2 F2 F2 | (D3 F) F3 F | FDCC DF F/D/D | (D3 F) F4 | F2 F2 F2 F2 | %7
w: Oh breth- e- ren|my- * way,|my way's cloud- y,|my- * way. Go|send them an- gels down. Oh breth- e- ren,|my- * way,|my way's cloud- y,|
 (D3 F) F3 F | FDCC D3 || d | dd/d/ cc dB/B/ A2 | FFEF G3 A | ddcc dBAA | AFAE D |] %14
w: my- * way. Go|send them an- gels down.|There's|fire in the east and fire in the west.|Send them an- gels down. And|fire a- mong the Meth- o- dist. O|send them an- gels down.|
V:3
 z2 z | D4 D4 | D2 D2 D2 D2 | D4 D3 D | DA,A,G, F,D D/D/D | D4 D4 | D2 D2 D2 D2 | D4 D3 D | %8
 DA,A,G, F,3 || z | z8 | DDED C3 z | z4 z2 z A, | A,A,A,G, F, |] %14
V:4
 z2 z | D,4 D,4 | D,2 D,2 D,2 D,2 | D,4 D,3 D, | D,D,A,,A,, D,D, D,/D,/D, | D,4 D,4 | %6
 D,2 D,2 D,2 D,2 | D,4 D,3 D, | D,D,A,,A,, D,3 || z | z8 | A,A,A,A, A,3 z | %12
"_2. Old satan's mad, and I am glad. Send them angels down.\n    He missed the soul he thought he had. Oh send them angels down.\n3. I'll tell you now as I told you before. Send them angels down.    \n    To the promised land I'm bound to go. Oh send them angels down.\n4. This is the year of Jubilee. Send them angels down.\n    The Lord has come and set us free. Oh send them angels down.\n" z4 z2 z D, | %13
 D,D,A,,A,, D, |] %14

